!!!!SEGMENT: pl-wnifc--6730-n--029_sowinski-wojciech--chants-religieux-de-la-pologne-op-93-priere-pour-les-troupes-dieu-de-bonte-dont-la-main-paternelle.krn
!!!cenid: 18xx:4043
!!!COM: Sowiński, Wojciech
!!!COM-rismID: pe30008543
!!!CDT: ~1803-1880/03/05
!!!CNT:
!!!GTL: Chants religieux de la Pologne op. 93
!!!OTL: Prière pour les troupes/Dieu de bonté dont la main paternelle
!!!OMV: 029
!!!PDT: 1830
!!!AGN:
!!!SMS-siglum: PL-Wnifc
!!!SMS-shelfmark: 6730/n
!!!SMS-shelfwork: 001-029 G
!!!SMS-variant:
!!!SMS-altvar:
!!!NIFC-rismSourceID: 1001138221
!!!NIFC-rismChildID: 1001138255
!!!NIFC-islandoraID: nifc:213350
!!!URL-pdf-islandora: https://repozytorium.nifc.pl/islandora/object/nifc%3A213350/datastream/PDF/view
!!!URL-scan: https://polish.musicsources.pl/pl/lokalizacje/galeria/druki-muzyczne/16913 @EN{Scan on Polish Music Sources Website} @PL{Skany w portalu Dziedzictwo Muzyki Polskiej w otwartym dostępie}
!!!IIIF:
!!!ONB-nifc: UWAGA: str. 114-119
!!!AIN: 1 calto 2 organ 2 soprn
!!!key: G
**kern	**kern	**dynam	**kern	**text	**dynam	**kern	**text	**dynam	**kern	**text	**dynam
*part5	*part4	*part4	*part3	*part3	*part3	*part2	*part2	*part2	*part1	*part1	*part1
*staff5	*staff4	*	*staff3	*staff3	*	*staff2	*staff2	*	*staff1	*staff1	*
*I"Organo	*I"ORGUE.	*	*I"CONTRALTO.	*	*	*I"2.e DESSUS.	*	*	*I"1.er DESSUS.	*	*
*	*I'org	*	*I'Contra-A	*	*	*I'S 2	*	*	*I'S 1	*	*
*Iorgan	*Iorgan	*	*Icalto	*	*	*Isoprn	*	*	*Isoprn	*	*
*ICklav	*ICklav	*	*ICvox	*	*	*ICvox	*	*	*ICvox	*	*
*clefF4	*clefG2	*	*clefG2	*	*	*clefG2	*	*	*clefG2	*	*
*k[f#]	*k[f#]	*	*k[f#]	*	*	*k[f#]	*	*	*k[f#]	*	*
*G:	*G:	*	*G:	*	*	*G:	*	*	*G:	*	*
*M4/4	*M4/4	*	*M4/4	*	*	*M4/4	*	*	*M4/4	*	*
*met(c)	*met(c)	*	*met(c)	*	*	*met(c)	*	*	*met(c)	*	*
!	!LO:TX:a:B:t=Andante religioso.	!	!	!	!	!	!	!	!LO:TX:a:B:t=Andante religioso.	!	!
4GG/ 4G	4b/ 4dd	.	2r	.	.	2r	.	.	2r	.	.
8.BB/L	8.b/L 8.dd	.	.	.	.	.	.	.	.	.	.
16D/Jk	16a/Jk 16cc	.	.	.	.	.	.	.	.	.	.
=1	=1	=1	=1	=1	=1	=1	=1	=1	=1	=1	=1
4G\	4.g/ 4.b	.	1r	.	.	1r	.	.	1r	.	.
4GG/	.	.	.	.	.	.	.	.	.	.	.
.	8g/ 8b	>	.	.	.	.	.	.	.	.	.
.	8qb/	.	.	.	.	.	.	.	.	.	.
4D/	8.f#/L 8.a	.	.	.	.	.	.	.	.	.	.
.	16e/K 16g	.	.	.	.	.	.	.	.	.	.
4DD/	8.f#/ 8.a	.	.	.	.	.	.	.	.	.	.
.	16g/Jk 16b	]]	.	.	.	.	.	.	.	.	.
=2	=2	=2	=2	=2	=2	=2	=2	=2	=2	=2	=2
2GG/	2B/ 2g	p	2r	.	.	2r	.	.	2r	.	.
!	!	!	!	!	!LO:DY:a	!	!	!LO:DY:a	!	!	!LO:DY:a
4GG/	4b\ 4dd	.	4g/	Dieu	p	4b/	Dieu	p	4dd\	Dieu	p
8BB/L	8b\L 8dd	.	8g/	de	.	8b/	de	.	8dd\	de	.
8D/J	8a\J 8cc	.	8g/	bon-	.	8a/	bon-	.	8cc\	bon-	.
=3	=3	=3	=3	=3	=3	=3	=3	=3	=3	=3	=3
4.G\	4.g/ 4.b	.	4.g/	-té	.	4.g/	-té	.	4.b\	-té	.
8GG/ 8G	8g/ 8b	.	8g/	dont	.	8g/	dont	.	8b\	dont	.
4GG/ 4G	4g/ 4b	.	8g/	la-	.	8g/	la-	.	8b\	la-	.
!	!	!	!	!	!LO:DY:a	!	!	!LO:DY:a	!	!	!LO:DY:a
.	.	.	8g/	-main	<	8g/	-main	<	8b\	-main	<
8GG/L 8G	8f#/L 8a	.	8d/	pa-	.	8f#/	pa-	.	8a/	pa-	.
8GG/J 8G	8g/J 8b	.	8g/	-ter-	[[	8g/	-ter-	[[	8b\	-ter-	[[
!LO:LB:g=original	!LO:LB:g=original	!	!LO:LB:g=original	!	!	!LO:LB:g=original	!	!	!LO:LB:g=original	!	!
=4	=4	=4	=4	=4	=4	=4	=4	=4	=4	=4	=4
!	!	!	!	!	!LO:DY:a	!	!	!LO:DY:a	!	!	!LO:DY:a
4D\ 4A	4f#/ 4dd	.	4f#/	-nel-	>	4a/	-nel-	>	4dd\	-nel-	>
4D\ 4A	4f#/ 4cc	.	4f#/	-le	.	4a/	-le	.	4cc\	-le	.
8r	8r	.	8r	.	]	8r	.	]	8r	.	]
8D\L	8a/L 8cc	.	8f#/	à	.	8a/	à	.	8cc\	à	.
8F#\	8a/ 8cc	.	8f#/	di-	.	8a/	di-	.	8cc\	di-	.
8G\J	8g/J 8b	.	8g/	-ri-	.	8g/	-ri-	.	8b\	-ri-	.
=5	=5	=5	=5	=5	=5	=5	=5	=5	=5	=5	=5
4.D/	4f#/ 4a	.	4.d/	-gé	.	4.f#/	-gé	.	4.a/	-gé	.
.	8d/L	<	.	.	.	.	.	.	.	.	.
8DD/ 8D	8f#/J 8a	.	8d/	nes	.	8f#/	nes	.	8a/	nes	.
4DD/ 4D	8f#\L 8a	.	8d/	des-	.	8f#/	des-	.	8a/	des-	.
.	8cc\ 8ee	.	8d/	-tins	.	8cc\	-tins	.	8ee\	-tins	.
8DD/L 8D	8b\ 8dd	[ >	8d/	glo-	.	8b/	glo-	.	8dd\	glo-	.
8DD/J 8D	8a\J 8cc	.	8d/	-ri-	.	8a/	-ri-	.	8cc\	-ri-	.
=6	=6	=6	=6	=6	=6	=6	=6	=6	=6	=6	=6
2GG/ 2G	2g/ 2b	.	2g/	-eux	.	2g/	-eux	.	2b\	-eux	.
!	!	!	!	!	!LO:DY:a	!	!	!LO:DY:a	!	!	!LO:DY:a
4GG/ 4G	8b/L 8dd	] f	4g/	et	f	4b/	et	f	4dd\	et	f
.	8d/	.	.	.	.	.	.	.	.	.	.
8BB/L	8b/ 8dd	.	8g/	dont	.	8b/	dont	.	8dd\	dont	.
8D/J	8a/J 8cc	.	8g/	long-	.	8b/	long-	.	8cc\	long-	.
!LO:LB:g=original	!LO:LB:g=original	!	!LO:LB:g=original	!	!	!LO:LB:g=original	!	!	!LO:LB:g=original	!	!
=7	=7	=7	=7	=7	=7	=7	=7	=7	=7	=7	=7
4.GG/ 4.G	4g/ 4b	.	4.g/	-temps	.	4.g/	-temps	.	4.b\	-temps	.
.	8d/L	.	.	.	.	.	.	.	.	.	.
8GG/ 8G	8g/J 8b	.	8g/	la	.	8g/	la	.	8b\	la	.
4GG/ 4G	8g/L 8b	.	8g/	puis-	.	8g/	puis-	.	8b\	puis-	.
.	8g/ 8b	.	8g/	-san-	.	8g/	-san-	.	8b\	-san-	.
8D/L	8f#/ 8a	.	8d/	-ce è-	.	8f#/	-ce è-	.	8a\	-ce è-	.
8GG/J 8G	8g/J 8b	.	8g/	-ter-	.	8g/	-ter-	.	8b\	-ter-	.
=8	=8	=8	=8	=8	=8	=8	=8	=8	=8	=8	=8
4D\ 4A	4f#\ 4dd	.	4f#/	-nel-	.	4a/	-nel-	.	4dd\	-nel-	.
4D\ 4A	4f#\ 4cc	.	4f#/	-le	.	4a/	-le	.	4cc\	-le	.
4DD/	8r	.	8r	.	.	8r	.	.	8r	.	.
.	8a\L 8cc	.	8f#/	d`un	.	8a/	d`un	.	8cc\	d`un	.
4D/	8a\ 8cc	.	8f#/	joug	.	8a/	joug	.	8cc\	joug	.
.	8g\J 8b	.	8g/	hon-	.	8g/	hon-	.	8b\	hon-	.
=9	=9	=9	=9	=9	=9	=9	=9	=9	=9	=9	=9
4DD/	4.f#^/ 4.a	.	4.d/	-teux	.	4.f#/	-teux	.	4.a/	-teux	.
4D/	.	.	.	.	.	.	.	.	.	.	.
.	8f#/ 8a	.	8d/	pré-	.	8f#/	pré-	.	8a/	pré-	.
4DD/	(8f#\L 8a	.	8d/	-ser-	.	8f#/	-ser-	.	8a/	-ser-	.
!	!	!	!	!	!LO:DY:a	!	!	!LO:DY:a	!	!	!LO:DY:a
.	8cc\ 8ee	.	8d/	-va	>	8cc\	-va	>	8ee\	-va	>
4D/	8b\ 8dd	.	8e/	nos	.	8b\	nos	.	8dd\	nos	.
.	8a\J) 8cc	.	8f#/	a-	]]	8a/	a-	]]	8cc\	a-	]]
!LO:LB:g=original	!LO:LB:g=original	!	!LO:LB:g=original	!	!	!LO:LB:g=original	!	!	!LO:LB:g=original	!	!
=10	=10	=10	=10	=10	=10	=10	=10	=10	=10	=10	=10
!	!	!	!	!	!	!	!	!	!	!	!LO:DY:a
4GG/ 4G	4g/ 4b	.	2g/	-yeux	.	2g/	-yeux	.	2b\	-yeux	p
8d\L	8g/L	.	.	.	.	.	.	.	.	.	.
8B\J	8b/J	.	.	.	.	.	.	.	.	.	.
4G\	4dd\	.	8r	.	.	8r	.	.	8r	.	.
.	.	.	8g/	pour	.	8b\	pour	.	8dd\	pour	.
!	!	!	!	!	!	!	!	!LO:DY:a	!	!	!LO:DY:a
4GG/ 4G	8b\L 8dd	<	8g/	la	.	8b\	la	<	8dd\	la	<
.	8b\J 8dd	.	8g/	Pa-	.	8b\	Pa-	[[	8dd\	Pa-	[[
=11	=11	=11	=11	=11	=11	=11	=11	=11	=11	=11	=11
2CC/ 2C	4g\ 4cc 4ee	f	4c/	-trie	.	4cc\	-trie	.	4ee\	-trie	.
.	8cc\L 8ee	.	8c/	é-	.	8cc\	é-	.	8ee\	é-	.
.	8cc\J 8ee	.	8c/	-cou-	.	8cc\	-cou-	.	8ee\	-cou-	.
4DD/ 4D	4a\ 4ff#	<	4d/	-te	.	4a/	-te	.	4ff#\	-te	.
4DD#X/ 4D#X	8a\L 8ff#	.	8d#X/	nos	.	8a/	nos	.	8ff#\	nos	.
.	8cc\J 8ff#	[[	8d#/	pri-	.	8cc\	pri-	.	8ff#\	pri-	.
=12	=12	=12	=12	=12	=12	=12	=12	=12	=12	=12	=12
!	!	!	!	!	!LO:DY:a	!	!	!LO:DY:a	!	!	!LO:DY:a
8.EE/L 8.E	8.b\L 8.gg	.	(8.e/L	-è-	f	(8.b/L	-è-	f	(8.gg\L	-è-	f
16FF#/Jk 16F#	16a\Jk 16dd	.	16f#/Jk)	.	.	16a/Jk)	.	.	16dd\Jk)	.	.
4FF#/ 4F#	4a\ 4dd	sf	4f#/	-res	.	4a/	-res	.	4dd\	-res	.
8r	8r	.	8r	.	.	8r	.	.	8r	.	.
!	!	!LO:DY:a	!	!	!LO:DY:a	!	!	!LO:DY:a	!	!	!LO:DY:a
8GG/L 8G	(8b\L 8dd	p	8g/	et	p	8b\	et	p	8dd\	et	p
8C/	8cc\ 8ee	.	8c/	mets	.	8cc\	mets	.	8ee\	mets	.
8C/J	8a\J) 8cc	.	8c/	o	.	8a/	o	.	8cc\	o	.
!LO:LB:g=original	!LO:LB:g=original	!	!LO:LB:g=original	!	!	!LO:LB:g=original	!	!	!LO:LB:g=original	!	!
=13	=13	=13	=13	=13	=13	=13	=13	=13	=13	=13	=13
!	!	!	!	!	!LO:DY:a	!	!	!LO:DY:a	!	!	!LO:DY:a
4D/	4.g/ 4.b	.	4.d/	Ciel	<	4.g/	Ciel	<	4.b\	Ciel	<
4d\	.	.	.	.	.	.	.	.	.	.	.
.	(8g/ 8b	.	8d/	un	.	8g/	un	.	8b\	un	.
4DD/	8b/L 8dd	.	8d/	terme	.	8b/	terme	.	8dd\	terme	.
.	8a/ 8cc	.	8d/	à	[	8a/	à	[	8cc\	à	[
4D/	8g/ 8b	.	8d/	nos	.	8g/	nos	.	8b/	nos	.
.	8f#/J) 8a	.	8d/	mi-	.	8f#/	mi-	.	8a/	mi-	.
=14	=14	=14	=14	=14	=14	=14	=14	=14	=14	=14	=14
4GG/ 4D	4c/ 4f# 4a	.	4d/	-sè-	.	4f#/	-sè-	.	4a/	-sè-	.
4GG/ 4D 4G	4B/ 4g	.	4g/	-res	.	4g/	-res	.	4g/	-res	.
8r	8r	.	8r	.	.	8r	.	.	8r	.	.
!	!	!	!	!	!LO:DY:a	!	!	!LO:DY:a	!	!	!LO:DY:a
8GG/L 8G	8g\L 8b 8dd	f	8g/	pour	f	8b/	pour	f	8dd\	pour	f
8GG/ 8G	8g\ 8b 8dd	.	8g/	la	.	8b/	la	.	8dd\	la	.
8GG/J 8G	8g\J 8b 8dd	.	8g/	pa-	.	8b/	pa-	.	8dd\	pa-	.
=15	=15	=15	=15	=15	=15	=15	=15	=15	=15	=15	=15
4CC/ 4C	4g\ 4cc 4ee	f	4c/	-trie	.	4cc\	-trie	.	4ee\	-trie	.
!	!	!	!	!	!LO:DY:a	!	!	!LO:DY:a	!	!	!LO:DY:a
4C\ 4c	8g\L 8cc 8ee	.	8c/	é-	<	8cc\	é-	<	8ee\	é-	<
.	8g\J 8cc 8ee	.	8c/	-cou-	.	8cc\	-cou-	.	8ee\	-cou-	.
4DD/ 4D	4a\ 4ff#	.	4d/	-te	.	4a/	-te	.	4ff#\	-te	.
4DD#X/ 4D#X	8a\L 8ff#	.	8d#X/	nos	.	8a/	nos	.	8ff#\	nos	.
.	8cc\J 8ff#	.	8d#/	pri	.	8cc\	pri	.	8ff#\	pri-	.
!LO:PB:g=original	!LO:PB:g=original	!	!LO:PB:g=original	!	!	!LO:PB:g=original	!	!	!LO:PB:g=original	!	!
=16	=16	=16	=16	=16	=16	=16	=16	=16	=16	=16	=16
!	!	!	!	!	!LO:DY:a	!	!	!LO:DY:a	!	!	!LO:DY:a
8.EE/L 8.E	8.b\L 8.gg	.	(8.e/L	-è-	f	(8.b/L	-è-	f	(8.gg\L	-è-	f
16FF#/Jk 16F#	16a\Jk 16dd	.	16f#/Jk)	.	.	16a/Jk)	.	.	16dd\Jk)	.	.
4FF#/ 4F#	4a\ 4dd	.	4f#/	-res	.	4a/	-res	.	4dd\	-res	.
4GG/ 4G	8r	.	8r	.	.	8r	.	.	8r	.	.
!	!	!LO:DY:a	!LO:TX:a:i:t=doux.	!	!	!LO:TX:a:i:t=doux.	!	!	!LO:TX:a:i:t=doux.	!	!
.	(8b\L 8dd	p	8g/	et	.	8b\	et	.	8dd\	et	.
4C/	8cc\ 8ee	.	8c/	mets	.	8cc\	mets	.	8ee\	mets	.
.	8a\J) 8cc	.	8c/	ô	.	8a/	ô	.	8cc\	ô	.
=17	=17	=17	=17	=17	=17	=17	=17	=17	=17	=17	=17
!	!	!	!	!	!LO:DY:a	!	!	!LO:DY:a	!	!	!LO:DY:a
2D/	4.g/ 4.b	.	4.d/	ciel	<	4.g/	ciel	<	4.b\	ciel	<
.	8g/ 8b	.	8d/	un	.	8g/	un	.	8b\	un	.
4DD/	8f#/L 8dd	.	8d/	terme	.	8f#/	terme	.	8dd\	terme	.
.	8a/ 8cc	.	8d/	à	[	8a/	à	[	8cc\	à	[
!	!	!	!	!	!	!	!	!LO:DY:a	!	!	!LO:DY:a
4D/	8g/ 8b	.	8d/	nos	.	8g/	nos	f	8b\	nos	f
.	8f#/J 8a	.	8d/	mi-	.	8f#/	mi-	.	8a\	mi-	.
=18	=18	=18	=18	=18	=18	=18	=18	=18	=18	=18	=18
*	*^	*	*	*	*	*	*	*	*	*	*
2DD/ 2D	2f#/ 2a	(4d\	.	(4d/	-sè-	.	2f#/	-sè-	.	2a/	-sè-	.
.	.	4c\)	.	4c/)	.	.	.	.	.	.	.	.
4GG/ 4G	4g/	4B\	.	4B/	-res	.	4g/	-res	.	4g/	-res	.
8.G\L 8.B	8.g/L 8.dd	4ryy	sf	4r	.	.	4r	.	.	4r	.	.
16G\Jk 16B	16g/Jk 16dd	.	.	.	.	.	.	.	.	.	.	.
*	*v	*v	*	*	*	*	*	*	*	*	*	*
=19	=19	=19	=19	=19	=19	=19	=19	=19	=19	=19	=19
4.C\ 4.c	4.g/ 4.ee	.	1r	.	.	1r	.	.	1r	.	.
!	!	!	!LO:LB:g=original	!	!	!LO:LB:g=original	!	!	!LO:LB:g=original	!	!
8C\ 8c	8g/ 8ee	.	.	.	.	.	.	.	.	.	.
8.D\L 8.d	8.f#/L 8.dd	.	.	.	.	.	.	.	.	.	.
16D\K 16d	16f#/K 16dd	.	.	.	.	.	.	.	.	.	.
8.D\ 8.d	8.f#/ 8.dd	.	.	.	.	.	.	.	.	.	.
16F#\Jk 16d	16a/Jk 16cc	.	.	.	.	.	.	.	.	.	.
!LO:LB:g=original	!LO:LB:g=original	!	!	!	!	!	!	!	!	!	!
=20	=20	=20	=20	=20	=20	=20	=20	=20	=20	=20	=20
4G\ 4d	4g/ 4b	.	1r	.	.	1r	.	.	1r	.	.
8r	8r	.	.	.	.	.	.	.	.	.	.
8g\	8gg\	.	.	.	.	.	.	.	.	.	.
(8d\L	(8dd/L	.	.	.	.	.	.	.	.	.	.
8B\	8b/	.	.	.	.	.	.	.	.	.	.
8G\	8g/	.	.	.	.	.	.	.	.	.	.
8E-X\J)	8a/J)	.	.	.	.	.	.	.	.	.	.
=21	=21	=21	=21	=21	=21	=21	=21	=21	=21	=21	=21
4.D\	4.g/ 4.b	.	1r	.	.	1r	.	.	1r	.	.
8D\	8g/ 8b	.	.	.	.	.	.	.	.	.	.
8.D\L	8.f#/L 8.a	.	.	.	.	.	.	.	.	.	.
16D\K	16f#/K 16a	.	.	.	.	.	.	.	.	.	.
8.D\	8.e/ 8.a	.	.	.	.	.	.	.	.	.	.
16D\Jk	16f#/Jk 16a	.	.	.	.	.	.	.	.	.	.
=22	=22	=22	=22	=22	=22	=22	=22	=22	=22	=22	=22
2GG/ 2G	2B/ 2g	.	2r	.	.	2r	.	.	2r	.	.
!	!	!	!	!	!LO:DY:a	!	!	!LO:DY:a	!LO:TX:a:t=2.e STROPHE.	!	!LO:DY:a
4GG/	(8b/L 8dd	.	4g/	Toi	f	4b\	Toi	f	4dd\	Toi	f
.	8d/	.	.	.	.	.	.	.	.	.	.
8BB/L	8b/ 8dd	.	8g/	qui	.	8b\	qui	.	8dd\	qui	.
8D/J	8a/J) 8cc	.	8g/	de-	.	8a/	de-	.	8cc\	de-	.
=23	=23	=23	=23	=23	=23	=23	=23	=23	=23	=23	=23
2GG/ 2G	8g/L 8b	.	4.g/	-puis	.	4.g/	-puis	.	4.b\	-puis	.
.	8d/	.	.	.	.	.	.	.	.	.	.
.	8g/ 8b	.	.	.	.	.	.	.	.	.	.
.	8d/J	.	8g/	tou-	.	8g/	tou-	.	8b\	tou-	.
4.GG/ 4.G	8g/L 8b	.	8.g/	-ché	.	8.g/	-ché	.	8.b\	-ché	.
.	8d/	.	.	.	.	.	.	.	.	.	.
.	.	.	16g/	de	.	16g/	de	.	16b\	de	.
.	8f#/ 8a	.	8.d/	leur	.	8.f#/	leur	.	8.a/	leur	.
8GG/ 8G	8g/J 8b	.	.	.	.	.	.	.	.	.	.
.	.	.	16g/	souf-	.	16g/	souf-	.	16b\	souf-	.
!LO:LB:g=original	!LO:LB:g=original	!	!LO:LB:g=original	!	!	!LO:LB:g=original	!	!	!LO:LB:g=original	!	!
=24	=24	=24	=24	=24	=24	=24	=24	=24	=24	=24	=24
4AA\ 4A	8f#/L 8dd	.	4f#/	-fran-	.	4a/	-fran-	.	4dd\	-fran-	.
.	8d/	.	.	.	.	.	.	.	.	.	.
4AA\ 4A	8f#/ 8cc	.	4f#/	-ce	.	4a/	-ce	.	4cc\	-ce	.
.	8d/J	.	.	.	.	.	.	.	.	.	.
4r	8a/L 8cc	.	8r	.	.	8r	.	.	8r	.	.
.	8d/	.	8f#/	De	.	8a/	De	.	8cc\	De	.
4D\	8a/ 8cc	.	8f#/	nos	.	8a/	nos	.	8cc\	nos	.
.	8g/J 8b	.	8g/	guer-	.	8g/	guer-	.	8b\	guer-	.
=25	=25	=25	=25	=25	=25	=25	=25	=25	=25	=25	=25
2DD/ 2D	8f#/L 8a	.	4.d/	-riers	.	4.f#/	-riers	.	4.a/	-riers	.
.	8d/	.	.	.	.	.	.	.	.	.	.
.	8f#/ 8a	.	.	.	.	.	.	.	.	.	.
.	8d/J	.	8d/	à	.	8f#/	à	.	8a/	à	.
(4D\	8cc/L 8ee	.	8.d/	sou-	.	8f#/	sou-	.	8a/	sou-	.
.	8d/J	.	.	.	.	8cc\	-te-	.	8ee\	-te-	.
.	.	.	16d/	-te-	.	.	.	.	.	.	.
8E\L	8b/L 8dd	.	8.d/	-nu	.	8b/	-nu	.	8dd\	-nu	.
8F#\J)	8a/J 8cc	.	.	.	.	8a/	les	.	8cc\	les	.
.	.	.	16d/	les	.	.	.	.	.	.	.
=26	=26	=26	=26	=26	=26	=26	=26	=26	=26	=26	=26
2GG/ 2G	8g/L 8b	.	2g/	coeurs	.	2g/	coeurs	.	2b\	coeurs	.
.	8d/	.	.	.	.	.	.	.	.	.	.
.	8g/ 8b	.	.	.	.	.	.	.	.	.	.
.	8d/J	.	.	.	.	.	.	.	.	.	.
!	!	!	!	!	!LO:DY:a	!	!	!LO:DY:a	!	!	!LO:DY:a
4GG/	8g/L 8b	.	4g/	Et	p	4b/	Et	p	4dd\	Et	p
.	8d/	.	.	.	.	.	.	.	.	.	.
8BB/L	8.b^/ 8.dd	.	8.g/	fait	.	8.b/	fait	.	8.dd\	fait	.
8D/J	.	.	.	.	.	.	.	.	.	.	.
.	16a/Jk 16cc	.	16a/	au	.	16a/	au	.	16cc\	au	.
!LO:LB:g=original	!LO:LB:g=original	!	!LO:LB:g=original	!	!	!LO:LB:g=original	!	!	!LO:LB:g=original	!	!
=27	=27	=27	=27	=27	=27	=27	=27	=27	=27	=27	=27
2GG\ 2G	8g/L 8b	.	4.g/	monde	.	4.g/	monde	.	4.b\	monde	.
.	8d/	.	.	.	.	.	.	.	.	.	.
.	8g/ 8b	.	.	.	.	.	.	.	.	.	.
.	8d/J	.	8g/	ad-	.	8g/	ad-	.	8b\	ad-	.
4.GG\ 4.G	8g/L 8b	.	8.g/	-mi-	.	8.g/	-mi-	.	8.b\	-mi-	.
.	8d/	.	.	.	.	.	.	.	.	.	.
.	.	.	16g/	-rer	.	16g/	-rer	.	16b\	-rer	.
.	8.f#/ 8.a	.	8.d/	leur	.	8.f#/	leur	.	8.a\	leur	.
8GG\ 8G	.	.	.	.	.	.	.	.	.	.	.
.	16g/Jk 16b	.	16g/	vail-	.	16g/	vail-	.	16b\	vail-	.
=28	=28	=28	=28	=28	=28	=28	=28	=28	=28	=28	=28
4AA\ 4A	8f#/L 8dd	.	4f#/	-lan-	.	4a/	-lan-	.	4dd\	-lan-	.
.	8d/	.	.	.	.	.	.	.	.	.	.
4AA\ 4A	8f#/ 8cc	.	4f#/	-ce	.	4a/	-ce	.	4cc\	-ce	.
.	8d/J	.	.	.	.	.	.	.	.	.	.
4r	8a/L 8cc	.	8r	.	.	8r	.	.	8r	.	.
.	8d/	.	8f#/	plus	.	8a/	plus	.	8cc\	plus	.
8F#\L	8a/ 8cc	.	8f#/	grande	.	8a/	grande	.	8cc\	grande	.
8D\J	8g/J 8b	.	8g/	en-	.	8g/	en-	.	8b\	en-	.
=29	=29	=29	=29	=29	=29	=29	=29	=29	=29	=29	=29
2DD/ 2D	8f#/L 8a	.	4.d/	-core	.	4.f#/	-core	.	4.a/	-core	.
.	8d/	.	.	.	.	.	.	.	.	.	.
.	8f#/ 8a	.	.	.	.	.	.	.	.	.	.
.	8d/J	.	8d/	au	.	8f#/	au	.	8a/	au	.
4DD/ 4D	8cc/L 8ee	.	8d/	sein	.	8f#/	sein	.	8a/	sein	.
!	!	!	!	!	!LO:DY:a	!	!	!LO:DY:a	!	!	!LO:DY:a
.	8d/J	.	8d/	de	>	8cc\	de	>	8ee\	de	>
8E\L	8b\L 8dd	.	8e/	leurs	.	8b\	leurs	.	8dd\	leurs	.
8F#\J	8a\J 8cc	.	8f#/	mal-	]]	8a/	mal-	]]	8cc\	mal-	]]
!LO:LB:g=original	!LO:LB:g=original	!	!LO:LB:g=original	!	!	!LO:LB:g=original	!	!	!LO:LB:g=original	!	!
=30	=30	=30	=30	=30	=30	=30	=30	=30	=30	=30	=30
*	*tremolo	*	*	*	*	*	*	*	*	*	*
2GG/ 2G	8g/L 8b	.	2g/	-heurs	.	2g/	-heurs	.	2b\	-heurs	.
.	8d/	.	.	.	.	.	.	.	.	.	.
.	8g/ 8b	.	.	.	.	.	.	.	.	.	.
.	8d/J	.	.	.	.	.	.	.	.	.	.
*	*Xtremolo	*	*	*	*	*	*	*	*	*	*
4GG/ 4G	8g\L 8b	.	8r	.	.	8r	.	.	8r	.	.
.	8g\ 8b 8dd	.	8g/	pour	.	8b\	pour	.	8dd\	pour	.
4GG/ 4G	8g\ 8b 8dd	<	8g/	la	.	8b\	la	.	8dd\	la	.
.	8g\J 8b 8dd	.	8g/	Pa-	.	8b\	Pa-	.	8dd\	Pa-	.
=31	=31	=31	=31	=31	=31	=31	=31	=31	=31	=31	=31
4CC/ 4C	4.g\ 4.cc 4.ee	.	4c/	-trie	.	4cc\	-trie	.	4ee\	-trie	.
!	!	!	!	!	!LO:DY:a	!	!	!LO:DY:a	!	!	!LO:DY:a
4C\ 4c	.	.	8c/	é-	<	8cc\	é-	<	8ee\	é-	<
.	8cc\ 8ee	.	8c/	-cou-	.	8cc\	-cou-	.	8ee\	-cou-	.
4DD/ 4D	4a\ 4ff#	.	4d/	-te	.	4a/	-te	.	4ff#\	-te	.
4DD#X/ 4D#X	8a\L 8ff#	.	8d#X/	nos	.	8a/	nos	.	8ff#\	nos	.
.	8cc\J 8ff#	.	8d#/	pri-	.	8cc\	pri-	.	8ff#\	pri-	.
=32	=32	=32	=32	=32	=32	=32	=32	=32	=32	=32	=32
!	!	!	!	!	!LO:DY:a	!	!	!LO:DY:a	!	!	!LO:DY:a
8.EE/L 8.E	8.b\L 8.gg	f	(8.e/L	-è-	f	(8.b/L	-è-	f	(8.gg\L	-è-	f
16FF#/Jk 16F#	16a\Jk 16cc 16dd	.	16f#/Jk)	.	.	16a/Jk)	.	.	16dd\Jk)	.	.
4FF#/ 4F#	4a\ 4cc 4dd	.	4f#/	-res	.	4a/	-res	.	4dd\	-res	.
4GG/ 4G	8r	p	8r	.	.	8r	.	.	8r	.	.
!	!	!	!	!	!LO:DY:a	!	!	!LO:DY:a	!	!	!LO:DY:a
.	(8b\L 8dd	.	8g/	et	p	8b\	et	p	8dd\	et	p
4C/	8cc\ 8ee	.	8c/	mets	.	8cc\	mets	.	8ee\	mets	.
.	8a\J) 8cc	.	8c/	au	.	8a/	au	.	8cc\	au	.
!LO:LB:g=original	!LO:LB:g=original	!	!LO:LB:g=original	!	!	!LO:LB:g=original	!	!	!LO:LB:g=original	!	!
=33	=33	=33	=33	=33	=33	=33	=33	=33	=33	=33	=33
2D/	4.g/ 4.b	<	4.d/	Ciel	.	4.g/	Ciel	.	4.b\	Ciel	.
.	8g/ 8b	.	8d/	un	.	8g/	un	.	8b\	un	.
4DD/	8b\L 8dd	[	8d/	terme	.	8b/	terme	.	8dd\	terme	.
.	8a\ 8cc	.	8d/	à	.	8a/	à	.	8cc\	à	.
4D/	8g\ 8b	.	8d/	nos	.	8g/	nos	.	8b\	nos	.
.	8f#\J 8a	.	8d/	mi-	.	8f#/	mi-	.	8a/	mi-	.
=34	=34	=34	=34	=34	=34	=34	=34	=34	=34	=34	=34
(8D\L	(4f#/ 4a	.	(8d/L	-sè-	.	4f#/	-sè-	.	4a/	-sè-	.
8D#X\J)	.	.	8d#X/J)	.	.	.	.	.	.	.	.
4E\	4e/) 4g	p	4e/	-res	.	4g/	-res	.	4g/	-res	.
4GG/ 4G	8r	.	8r	.	.	8r	.	.	8r	.	.
!	!	!	!	!	!LO:DY:a	!	!	!LO:DY:a	!	!	!LO:DY:a
.	8g/L 8b 8dd	f	8g/	pour	f	8b\	pour	f	8dd\	pour	f
8GG/L 8G	8g/ 8b 8dd	.	8g/	la	.	8b\	la	.	8dd\	la	.
8GG/J 8G	8g/J 8b 8dd	.	8g/	Pa-	.	8b\	Pa-	.	8dd\	Pa-	.
=35	=35	=35	=35	=35	=35	=35	=35	=35	=35	=35	=35
!	!	!	!	!	!LO:DY:a	!	!	!LO:DY:a	!	!	!LO:DY:a
4CC/ 4C	4g\ 4cc 4ee	sf	4c/	-trie	<	4cc\	-trie	<	4ee\	-trie	<
4C\ 4c	8cc\L 8ee	.	8c/	é-	.	8cc\	é-	.	8ee\	é-	.
.	8cc\J 8ee	.	8c/	-cou-	.	8cc\	-cou-	.	8ee\	-cou-	.
4DD/ 4D	4a\ 4ff#	<	4d/	-te	[	4a/	-te	[	4ff#\	-te	[
4DD#X/ 4D#X	8a\L 8ff#	.	8d#X/	nos	.	8a/	nos	.	8ff#\	nos	.
.	8cc\J 8ff#	[[	8d#/	pri-	.	8cc\	pri-	.	8ff#\	pri-	.
!LO:PB:g=original	!LO:PB:g=original	!	!LO:PB:g=original	!	!	!LO:PB:g=original	!	!	!LO:PB:g=original	!	!
=36	=36	=36	=36	=36	=36	=36	=36	=36	=36	=36	=36
!	!	!	!	!	!LO:DY:a	!	!	!LO:DY:a	!	!	!LO:DY:a
8.EE/L 8.E	8.b\L 8.gg	.	(8.e/L	-è-	f	(8.b/L	-è-	f	(8.gg\L	-è-	f
16FF#/Jk 16F#	16d\Jk 16a 16cc 16dd	.	16f#/Jk)	.	.	16a/Jk)	.	.	16dd\Jk)	.	.
4FF#;</ 4F#	4d;\ 4a 4cc 4dd	.	4f#;/	-res	.	4a;/	-res	.	4dd;\	-res	.
!	!	!	!	!	!LO:DY:a	!	!	!LO:DY:a	!	!	!LO:DY:a
4GG/ 4G	8r	p	8r	.	p	8r	.	p	8r	.	p
.	(8b\L 8dd	.	8b/	et	.	8b\	et	.	8dd\	et	.
4C/	8cc\ 8ee	.	8c/	mets	.	8cc\	mets	.	8ee\	mets	.
.	8a\J) 8cc	.	8c/	ô	.	8a/	ô	.	8cc\	ô	.
=37	=37	=37	=37	=37	=37	=37	=37	=37	=37	=37	=37
*	*^	*	*	*	*	*	*	*	*	*	*
*	*tremolo	*	*	*	*	*	*	*	*	*	*	*
2D/	8g/L 8b	2ryy	.	4.d/	Ciel	.	4.g/	Ciel	.	4.b\	Ciel	.
.	8d/	.	.	.	.	.	.	.	.	.	.	.
.	8g/ 8b	.	.	.	.	.	.	.	.	.	.	.
.	8d/J	.	.	8d/	un	.	8g/	un	.	8b\	un	.
*	*Xtremolo	*	*	*	*	*	*	*	*	*	*	*
4DD/	8dd/L	4.d\ 4.f#	.	8d/	ter-	.	8f#/	ter-	.	8dd\	ter-	.
.	8cc/	.	.	8d/	-me à	.	8f#/	-me à	.	8cc\	-me à	.
4D/	8b/	.	.	8d/	nos	.	8f#/	nos	.	8b\	nos	.
.	8a/J	8d\ 8f#	.	8d/	mi-	.	8f#/	mi-	.	8a/	mi-	.
=38	=38	=38	=38	=38	=38	=38	=38	=38	=38	=38	=38	=38
2DD/ 2D	2f#/ 2a	4d\	.	4d/	-sè-	.	2f#/	-sè-	.	2a/	-sè-	.
.	.	4c\	.	4c/	.	.	.	.	.	.	.	.
4GG/ 4G	4B/ 4g	2ryy	.	4B/	-res	.	4g/	-res	.	4g/	-res	.
8.GG/L 8.G	8.b\L 8.gg	.	.	4r	.	.	4r	.	.	4r	.	.
16GG/Jk 16G	16b\Jk 16gg	.	.	.	.	.	.	.	.	.	.	.
*	*v	*v	*	*	*	*	*	*	*	*	*	*
=39	=39	=39	=39	=39	=39	=39	=39	=39	=39	=39	=39
8.GG\L 8.G	8.b\L 8.gg	.	1r	.	.	1r	.	.	1r	.	.
!	!	!	!LO:LB:g=original	!	!	!LO:LB:g=original	!	!	!LO:LB:g=original	!	!
16AA\K 16A	16cc\K 16ff#	.	.	.	.	.	.	.	.	.	.
8.AA\ 8.A	8.cc\ 8.ff#	.	.	.	.	.	.	.	.	.	.
16BB\Jk 16B	16dd\Jk 16ffn	.	.	.	.	.	.	.	.	.	.
4BB\ 4B	4dd\ 4ff	.	.	.	.	.	.	.	.	.	.
[4C\ [4c	[4g\ [4cc [4ee	.	.	.	.	.	.	.	.	.	.
!LO:LB:g=original	!LO:LB:g=original	!	!	!	!	!	!	!	!	!	!
=40	=40	=40	=40	=40	=40	=40	=40	=40	=40	=40	=40
4C\] 4c]	4g\] 4cc] 4ee]	.	1r	.	.	1r	.	.	1r	.	.
4C#X\ 4c#X	8.g\L 8.a 8.ee	.	.	.	.	.	.	.	.	.	.
.	16g\Jk 16a 16ee	.	.	.	.	.	.	.	.	.	.
4D\ 4d	4g\ 4b 4dd	.	.	.	.	.	.	.	.	.	.
4D\ 4d	4f#\ 4a 4dd	.	.	.	.	.	.	.	.	.	.
=41	=41	=41	=41	=41	=41	=41	=41	=41	=41	=41	=41
2G\ 2d	2g/ 2b	.	2r	.	.	2r	.	.	2r	.	.
!	!	!	!	!	!LO:DY:a	!	!	!LO:DY:a	!LO:TX:a:t=3.e STROPHE.	!	!LO:DY:a
4GG/ 4G	4d/ 4b 4dd	f	4g/	Qu`un	f	4b/	Qu`un	f	4dd\	Qu`un	f
8BB/L	8b\L 8dd	.	8g/	même	.	8b/	même	.	8dd\	même	.
8D/J	8a\J 8cc	.	8g/	é-	.	8a/	é-	.	8cc\	é-	.
=42	=42	=42	=42	=42	=42	=42	=42	=42	=42	=42	=42
4.G\	4.g/ 4.b	.	4.g/	-clat	.	4.g/	-clat	.	4.b\	-clat	.
8GG\ 8G	8g/ 8b	.	8g/	renai-	.	8f#/	renai-	.	8b\	renai-	.
4GG\ 4G	4g/ 4b	.	8.g/	-sse	.	8.g/	-sse	.	8.b\	-sse	.
.	.	.	16g/	et	.	16g/	et	.	16b\	et	.
8GG\L 8G	8f#/L 8a	.	8.d/	nous	.	8.f#/	nous	.	8.a\	nous	.
8GG\J 8G	8g/J 8b	.	.	.	.	.	.	.	.	.	.
.	.	.	16g/	é-	.	16g/	é-	.	16b\	é-	.
=43	=43	=43	=43	=43	=43	=43	=43	=43	=43	=43	=43
4D\ 4A	4f#\ 4dd	.	4f#/	-clai-	.	4a/	-clai-	.	4cc\	-clai-	.
4D\ 4A	4f#\ 4cc	.	4f#/	-re	.	4a/	-re	.	4cc\	-re	.
8r	8r	.	8r	.	.	8r	.	.	8r	.	.
8D\L	8a\L 8cc	.	8f#/	rends	.	8a/	rends	.	8cc\	rends	.
8F#\	8a\ 8cc	.	8f#/	des	.	8a/	des	.	8cc\	des	.
8G\J	8g\J 8b	.	8g/	mois	.	8g/	mois-	.	8b\	mois-	.
!LO:LB:g=original	!LO:LB:g=original	!	!LO:LB:g=original	!	!	!LO:LB:g=original	!	!	!LO:LB:g=original	!	!
=44	=44	=44	=44	=44	=44	=44	=44	=44	=44	=44	=44
4.D/	4f#/ 4a	.	4.d/	-sons	.	4.f#/	-sons	.	4.a/	-sons	.
.	8d/L	<	.	.	.	.	.	.	.	.	.
8DD/ 8D	8f#/J 8a	.	8d/	à	.	8f#/	à	.	8a/	à	.
4DD/ 4D	8f#\L 8a	.	8d/	son	.	8f#/	son	.	8a/	son	.
.	8cc\ 8ee	[ >	8d/	sol	.	8cc\	sol	.	8ee\	sol	.
8DD/L 8D	8b\ 8dd	.	8d/	dé-	.	8b/	dé-	.	8dd\	dé-	.
8DD/J 8D	8a\J 8cc	]]	8d/	-vas-	.	8a/	-vas-	.	8cc\	-vas-	.
=45	=45	=45	=45	=45	=45	=45	=45	=45	=45	=45	=45
2GG/ 2G	2g/ 2b	.	2g/	-té	.	2g/	-té	.	2b\	-té	.
4GG/ 4G	8b/L 8dd	f	4g/	O	.	4b/	O	.	4dd\	O	.
.	8d/	.	.	.	.	.	.	.	.	.	.
8BB/L	8b/ 8dd	.	8g/	Dieu	.	8b/	Dieu	.	8dd\	Dieu	.
8D/J	8a/J 8cc	.	8g/	puis-	.	8a/	puis-	.	8cc\	puis-	.
=46	=46	=46	=46	=46	=46	=46	=46	=46	=46	=46	=46
4.GG/ 4.G	4g/ 4b	.	4.g/	-sant	.	4.g/	-sant	.	4.b\	-sant	.
.	8d/L	.	.	.	.	.	.	.	.	.	.
8GG/ 8G	8g/J 8b	.	8g/	ap-	.	8g/	ap-	.	8b\	ap-	.
!	!	!	!	!	!LO:DY:a	!	!	!LO:DY:a	!	!	!LO:DY:a
4GG/ 4G	8g/L 8b	.	8.g/	-pai-	<	8.g/	-pai-	<	8.b\	-pai-	<
.	8g/ 8b	.	.	.	.	.	.	.	.	.	.
.	.	.	16g/	-se	.	16g/	-se	.	16b\	-se	.
8D/L	8f#/ 8a	.	8.d/	ta	.	8.d/	ta	.	8.a\	ta	.
8GG/J 8G	8g/J 8b	.	.	.	.	.	.	.	.	.	.
.	.	.	16g/	co-	[[	16g/	co-	[[	16b\	co-	[[
=47	=47	=47	=47	=47	=47	=47	=47	=47	=47	=47	=47
4D\ 4A	4f#\ 4dd	.	4f#/	-lè-	.	4a/	-lè-	.	4dd\	-lè-	.
4D\ 4A	4f#\ 4cc	.	4f#/	-re	.	4a/	-re	.	4cc\	-re	.
4DD/	8r	.	8r	.	.	8r	.	.	8r	.	.
.	8a\L 8cc	.	8f#/	Rends	.	8a/	Rends	.	8cc\	Rends	.
4D/	8a\ 8cc	.	8f#/	nous	.	8a/	nous	.	8cc\	nous	.
.	8g\J 8b	.	8g/	la	.	8g/	la	.	8b\	la	.
!LO:LB:g=original	!LO:LB:g=original	!	!LO:LB:g=original	!	!	!LO:LB:g=original	!	!	!LO:LB:g=original	!	!
=48	=48	=48	=48	=48	=48	=48	=48	=48	=48	=48	=48
4DD/	4.f#^/ 4.a	.	4.d/	paix	.	4.f#/	paix	.	4.a/	paix	.
4D/	.	.	.	.	.	.	.	.	.	.	.
.	8f#/ 8a	.	8d/	rends	.	8f#/	rends	.	8a/	rends	.
4DD/	8f#\L 8a	.	8d/	nous	.	8f#/	nous	.	8a/	nous	.
.	8cc\ 8ee	>	8d/	la	.	8cc\	la	.	8ee\	la	.
4D/	8b\ 8dd	.	8d/	li-	.	8b/	li-	.	8dd\	li-	.
.	8a\J 8cc	]]	8d/	-ber-	.	8a/	-ber-	.	8cc\	-ber-	.
=49	=49	=49	=49	=49	=49	=49	=49	=49	=49	=49	=49
4GG/ 4G	4g/ 4b	.	2g/	-té	.	2g/	-té	.	2b\	-té	.
8d\L	8g/L	.	.	.	.	.	.	.	.	.	.
8B\J	8b/J	.	.	.	.	.	.	.	.	.	.
4G\	4dd\	.	8r	.	.	8r	.	.	8r	.	.
!	!	!	!	!	!LO:DY:a	!	!	!LO:DY:a	!	!	!LO:DY:a
.	.	.	8g/	pour	f	8b/	pour	f	8dd\	pour	f
4GG/ 4G	8b\L 8dd	.	8g/	la	.	8b/	la	.	8dd\	la	.
.	8b\J 8dd	.	8g/	Pa-	.	8b/	Pa-	.	8dd\	Pa-	.
=50	=50	=50	=50	=50	=50	=50	=50	=50	=50	=50	=50
2CC/ 2C	4g\ 4cc 4ee	f	4c/	-trie	.	4cc\	-trie	.	4ee\	-trie	.
.	8cc\L 8ee	.	8c/	é-	.	8cc\	é-	.	8ee\	é-	.
.	8cc\J 8ee	.	8c/	-cou-	.	8cc\	-cou-	.	8ee\	-cou-	.
!	!	!	!	!	!LO:DY:a	!	!	!LO:DY:a	!	!	!LO:DY:a
4DD/ 4D	4a\ 4ff#	<	4d/	-te	<	4a/	-te	<	4ff#\	-te	<
4DD#X/ 4D#X	8a\L 8ff#	.	8d#X/	nos	.	8a/	nos	.	8ff#\	nos	.
.	8cc\J 8ff#	[[	8d#/	pri-	[[	8cc\	pri-	[[	8ff#\	pri-	[[
!LO:LB:g=original	!LO:LB:g=original	!	!LO:LB:g=original	!	!	!LO:LB:g=original	!	!	!LO:LB:g=original	!	!
=51	=51	=51	=51	=51	=51	=51	=51	=51	=51	=51	=51
!	!	!	!	!	!LO:DY:a	!	!	!LO:DY:a	!	!	!LO:DY:a
8.EE/L 8.E	8.b\L 8.gg	f	(8.e/L	-è-	f	(8.b/L	-è-	f	(8.gg\L	-è-	f
16FF#/Jk 16F#	16a\Jk 16dd	.	16f#/Jk)	.	.	16a/Jk)	.	.	16dd\Jk)	.	.
4FF#/ 4F#	4a\ 4dd	sf	4f#/	-res	.	4a/	-res	.	4dd\	-res	.
8r	8r	.	8r	.	.	8r	.	.	8r	.	.
!	!	!LO:DY:a	!	!	!LO:DY:a	!	!	!LO:DY:a	!	!	!LO:DY:a
8GG/L 8G	(8b\L 8dd	p	8g/	et	p	8b\	et	p	8dd\	et	p
8C/	8cc\ 8ee	.	8c/	mets	.	8cc\	mets	.	8ee\	mets	.
8C/J	8a\J) 8cc	.	8c/	ô	.	8a/	ô	.	8cc\	ô	.
=52	=52	=52	=52	=52	=52	=52	=52	=52	=52	=52	=52
!	!	!	!	!	!	!	!	!	!	!	!LO:DY:a
4D\	4.g/ 4.b	.	4.d/	Ciel	.	4.g/	Ciel	.	4.b\	Ciel	<
4d\	.	.	.	.	.	.	.	.	.	.	.
.	(8g/ 8b	.	8d/	un	.	8g/	un	.	8b\	un	.
4DD/	8b/L 8dd	.	8d/	terme	.	8f#/	terme	.	8dd\	terme	[
.	8a/ 8cc	.	8d/	à	.	8a/	à	.	8cc\	à	.
!	!	!	!	!	!LO:DY:a	!	!	!LO:DY:a	!	!	!LO:DY:a
4D\	8g/ 8b	.	8d/	nos	p	8g/	nos	p	8b\	nos	p
.	8f#/J) 8a	.	8d/	mi-	.	8f#/	mi-	.	8a/	mi-	.
=53	=53	=53	=53	=53	=53	=53	=53	=53	=53	=53	=53
4GG/ 4D	4c/ 4f# 4a	.	4d/	-sè-	.	4f#/	-sè-	.	4a/	-sè-	.
4GG/ 4D 4G	4B/ 4g	.	4g/	-res	.	4g/	-res	.	4g/	-res	.
8r	8r	.	8r	.	.	8r	.	.	8r	.	.
!	!	!	!	!	!LO:DY:a	!	!	!LO:DY:a	!	!	!LO:DY:a
8GG/L 8G	8g/L 8b 8dd	f	8g/	pour	f	8b/	pour	f	8dd\	pour	f
8GG/ 8G	8g/ 8b 8dd	.	8g/	la	.	8b/	la	.	8dd\	la	.
8GG/J 8G	8g/J 8b 8dd	.	8g/	Pa-	.	8b/	Pa-	.	8dd\	Pa-	.
!LO:LB:g=original	!LO:LB:g=original	!	!LO:LB:g=original	!	!	!LO:LB:g=original	!	!	!LO:LB:g=original	!	!
=54	=54	=54	=54	=54	=54	=54	=54	=54	=54	=54	=54
*	*k[f#]	*	*	*	*	*	*	*	*	*	*
4CC/ 4C	4g\ 4cc 4ee	f	4c/	-trie	.	4cc\	-trie	.	4ee\	-trie	.
4C\ 4c	8g\L 8cc 8ee	.	8c/	é-	.	8cc\	é-	.	8ee\	é-	.
.	8g\J 8cc 8ee	.	8c/	-cou-	.	8cc\	-cou-	.	8ee\	-cou-	.
!	!	!	!	!	!LO:DY:a	!LO:TX:t=P:problem:LO:N:vis=8	!	!LO:DY:a	!	!	!LO:DY:a
4DD/ 4D	4a\ 4ff#	.	4d/	-te	<	4a/	-te	<	4ff#\	-te	<
4DD#X/ 4D#X	8a\L 8ff#	.	8d#X/	nos	.	8a/	nos	.	8ff#\	nos	.
.	8cc\J 8ff#	.	8d#/	pri-	[[	8cc\	pri-	[[	8ff#\	pri-	[[
=55	=55	=55	=55	=55	=55	=55	=55	=55	=55	=55	=55
!	!	!	!	!	!	!	!	!	!	!	!LO:DY:a
8.EE/L 8.E	8.b\L 8.gg	.	(8.e/L	-è-	.	(8.b/L	-è-	.	(8.gg\L	-è-	f
16FF#/Jk 16F#	16a\Jk 16dd	.	16f#/Jk)	.	.	16a/Jk)	.	.	16dd\Jk)	.	.
4FF#/ 4F#	4a\ 4dd	f	4f#/	-res	.	4a/	-res	.	4dd\	-res	.
4GG/ 4G	8r	.	8r	.	.	8r	.	.	8r	.	.
!	!	!LO:DY:a	!	!	!LO:DY:a	!	!	!LO:DY:a	!	!	!LO:DY:a
.	(8b\L 8dd	p	8g/	et	p	8a/	et	p	8dd\	et	p
4C/	8cc\ 8ee	.	8c/	mets	.	8cc\	mets	.	8ee\	mets	.
.	8a\J) 8cc	.	8c/	ô	.	8a/	ô	.	8cc\	ô	.
=56	=56	=56	=56	=56	=56	=56	=56	=56	=56	=56	=56
2D/	4.g/ 4.b	<	4.d/	ciel	.	4.g/	ciel	.	4.b\	ciel	.
!	!	!	!	!	!LO:DY:a	!	!	!LO:DY:a	!	!	!LO:DY:a
.	8g/ 8b	.	8d/	un	<	8g/	un	<	8b\	un	<
4DD/	8f#/L 8dd	.	8d/	ter-	.	8f#/	ter-	.	8dd\	ter-	.
.	8a/ 8cc	[	8d/	-ma à	.	8a/	-ma à	.	8cc\	-ma à	.
4D/	8g/ 8b	.	8d/	nos	.	8g/	nos	.	8b\	nos	.
.	8f#/J 8a	.	8d/	mi-	[[	8f#/	mi-	[[	8a/	mi-	[[
=57	=57	=57	=57	=57	=57	=57	=57	=57	=57	=57	=57
*	*^	*	*	*	*	*	*	*	*	*	*
!	!	!	!	!	!	!LO:DY:a	!	!	!LO:DY:a	!	!	!LO:DY:a
2DD/ 2D	2f#/ 2a	4d\	>	4d/	-sè-	>	2f#/	-sè-	>	2a/	-sè-	>
.	.	4c\	.	4c/	.	.	.	.	.	.	.	.
4GG/ 4G	4g/	4B\	.	4B/	-res	.	4g/	-res	.	4g/	-res	.
4r	4r	4ryy	]	4r	.	]	4r	.	]	4r	.	]
*	*v	*v	*	*	*	*	*	*	*	*	*	*
==	==	==	==	==	==	==	==	==	==	==	==
*-	*-	*-	*-	*-	*-	*-	*-	*-	*-	*-	*-
!!!RDF**kern: > = above
!!!RDF**kern: < = below
!!!system-decoration: [(s1,s2,s3)][(s4,s5)]
!!!ENC: Filip Voros
!!!END: 2022-08-13
!!!ENC: Julita Ruszuk
!!!END: 2022-09-20
!!!YEC: Copyright 2022 Narodowy Instytut Fryderyka Chopina (https://polishscores.org)
!!!YEM: License CC-BY-4.0 (https://creativecommons.org/licenses/by/4.0)
